chrome/icons/autoscroller.svg

<svg height="100%" viewBox="0 0 1024 1024" width="100%" xmlns="http://www.w3.org/2000/svg" xmlns:xlink="http://www.w3.org/1999/xlink">
  <path d="M512,77L374.5,214.5C368.167,220.833 360.667,224 352,224C343.333,224 335.833,220.833 329.5,214.5C323.167,208.167 320,200.667 320,192C320,183.333 323.167,175.833 329.5,169.5L489.5,9.5C495.833,3.16669 503.333,0 512,0C520.667,0 528.167,3.16669 534.5,9.5L694.5,169.5C700.833,175.833 704,183.333 704,192C704,200.667 700.833,208.167 694.5,214.5C688.167,220.833 680.667,224 672,224C663.333,224 655.833,220.833 649.5,214.5ZM0,512C0,503.333 3.16667,495.833 9.5,489.5L169.5,329.5C175.833,323.167 183.333,320 192,320C200.667,320 208.167,323.167 214.5,329.5C220.833,335.833 224,343.333 224,352C224,360.667 220.833,368.167 214.5,374.5L77.5,512L214.5,649.5C220.833,655.833 224,663.333 224,672C224,680.667 220.833,688.167 214.5,694.5C208.167,700.833 200.667,704 192,704C183.333,704 175.833,700.833 169.5,694.5L9.5,534.5C3.16667,528.167 0,520.667 0,512ZM800,672C800,663.333 803.167,655.833 809.5,649.5L947,512L809.5,374.5C803.167,368.167 800,360.667 800,352C800,343.333 803.167,335.833 809.5,329.5C815.833,323.167 823.333,320 832,320C840.667,320 848.167,323.167 854.5,329.5L1014.5,489.5C1020.83,495.833 1024,503.333 1024,512C1024,520.667 1020.83,528.167 1014.5,534.5L854.5,694.5C848.167,700.833 840.667,704 832,704C823.333,704 815.833,700.833 809.5,694.5C803.167,688.167 800,680.667 800,672ZM432,512C432,501 434.167,490.667 438.5,481C442.833,471.333 448.583,462.917 455.75,455.75C462.917,448.583 471.333,442.833 481,438.5C490.667,434.167 501,432 512,432C523,432 533.333,434.167 543,438.5C552.667,442.833 561.083,448.583 568.25,455.75C575.417,462.917 581.167,471.333 585.5,481C589.833,490.667 592,501 592,512C592,523 589.833,533.333 585.5,543C581.167,552.667 575.417,561.083 568.25,568.25C561.083,575.417 552.667,581.167 543,585.5C533.333,589.833 523,592 512,592C501,592 490.667,589.833 481,585.5C471.333,581.167 462.917,575.417 455.75,568.25C448.583,561.083 442.833,552.667 438.5,543C434.167,533.333 432,523 432,512ZM320,832C320,823.333 323.167,815.833 329.5,809.5C335.833,803.167 343.333,800 352,800C360.667,800 368.167,803.167 374.5,809.5L512,946.5L649.5,809.5C655.833,803.167 663.333,800 672,800C680.667,800 688.167,803.167 694.5,809.5C700.833,815.833 704,823.333 704,832C704,840.667 700.833,848.167 694.5,854.5L534.5,1014.5C528.167,1020.83 520.667,1024 512,1024C503.333,1024 495.833,1020.83 489.5,1014.5L329.5,854.5C323.167,848.167 320,840.667 320,832Z" fill="context-fill" fill-opacity="context-fill-opacity">
  </path>
</svg>

<svg xmlns="http://www.w3.org/2000/svg" viewBox="0 0 1024 1024"><path fill="context-fill" fill-opacity="context-fill-opacity" d="M512 77 374.5 214.5Q365 224 352 224t-22.5-9.5T320 192t9.5-22.5l160-160Q499 0 512 0t22.5 9.5l160 160Q704 179 704 192t-9.5 22.5T672 224t-22.5-9.5ZM0 512q0-13 9.5-22.5l160-160Q179 320 192 320t22.5 9.5T224 352t-9.5 22.5L77.5 512l137 137.5Q224 659 224 672t-9.5 22.5T192 704t-22.5-9.5l-160-160Q0 525 0 512m800 160q0-13 9.5-22.5L947 512 809.5 374.5Q800 365 800 352t9.5-22.5T832 320t22.5 9.5l160 160c6.33 6.333 9.5 13.833 9.5 22.5s-3.17 16.167-9.5 22.5l-160 160Q845 704 832 704t-22.5-9.5T800 672M432 512q0-16.5 6.5-31t17.25-25.25T481 438.5t31-6.5 31 6.5 25.25 17.25T585.5 481t6.5 31-6.5 31-17.25 25.25T543 585.5t-31 6.5-31-6.5-25.25-17.25T438.5 543t-6.5-31M320 832q0-13 9.5-22.5T352 800t22.5 9.5l137.5 137 137.5-137Q659 800 672 800t22.5 9.5T704 832t-9.5 22.5l-160 160c-6.333 6.33-13.833 9.5-22.5 9.5s-16.167-3.17-22.5-9.5l-160-160Q320 845 320 832"/></svg>
